svg/services/Arrow.svg

<svg width="45" height="76" viewBox="0 0 45 76" fill="none" xmlns="http://www.w3.org/2000/svg">
<path d="M3.36897 34.6493C1.47058 36.6547 1.55731 39.8193 3.5627 41.7177L36.2424 72.6538C38.2478 74.5522 41.4124 74.4654 43.3108 72.46C45.2092 70.4547 45.1224 67.29 43.1171 65.3916L14.0685 37.8929L41.5672 8.84431C43.4656 6.83892 43.3788 3.67428 41.3734 1.77589C39.3681 -0.122497 36.2034 -0.0357591 34.305 1.96963L3.36897 34.6493ZM10.0241 33.0019L6.86305 33.0885L7.13703 43.0848L10.2981 42.9981L10.0241 33.0019Z" fill="#9B9B9B"/>
</svg>

<svg width="45" height="76" fill="none" xmlns="http://www.w3.org/2000/svg"><path d="M3.369 34.65a5 5 0 00.194 7.068l32.68 30.936a5 5 0 006.874-7.262l-29.048-27.5L41.567 8.845a5 5 0 00-7.262-6.874L3.369 34.65zm6.655-1.648l-3.16.087.273 9.996 3.161-.087-.274-9.996z" fill="#9B9B9B"/></svg>
